X:1
T:Roanoke, 11.10.11.10 D
T:Roanoke, 11.10.11.10 D
T:Charles Hutchinson Gabriel, 1912
T:Public Domain Courtesy of the Cyber Hymnal™
C:Charles Hutchinson Gabriel, 1912
Z:Public Domain
Z:Courtesy of the Cyber Hymnal™
%%score ( 1 2 ) ( 3 4 )
L:1/8
Q:1/4=100
M:4/4
K:G
V:1 treble 
V:2 treble 
V:3 bass 
V:4 bass 
V:1
 D | [DG]2 [DG]2 [DG]3 [DA] | [GB][Gc][Gd][Ge] [Gd] [GB]2 G | [FA]2 [GA]2 [FA]3 [^E^G] | %4
 [FA][GB][Ac][GB] [FA]3 D | [DG]2 [DG]2 [DG]3 [DA] | [GB][Gc][Gd][Ge] [Gd] [GB]2 [DG] | %7
 [EA]2 [EB]2 [Ec][Ec][EB][EA] | [DG]2 [DF]2 [DG]3 [GB] | [Gd]3 [Ge] [Gd]3 [GB] | %10
 [Bd][Ac][Ac][^GB] [Ac] [FA]2 [=GB] | [Ac]3 [Bd] [Ac]3 [ce] | [ce][Bd][Bd][^A^c] [Bd]3 [GB] | %13
 [Gd]3 [Ge] [Gd]3 [GB] | [Gd][DG][DA][DB] (cd)!fermata![Ge][Ge] | [Gd]2 [G^c]2 [Gd]3 G | %16
 [GB][GB][FA][DA] [DG]3 |] %17
V:2
 D | x8 | x7 G | x8 | x7 D | x8 | x8 | x8 | x8 | x8 | x8 | x8 | x8 | x8 | x4 G2 x2 | x7 G | x7 |] %17
V:3
 [G,B,] | [G,B,]2 [G,B,]2 [G,B,]3 [G,C] | [G,D][G,A,][G,B,][G,C] [G,B,] [G,D]2 [G,B,] | %3
 [D,D]2 [E,^C]2 [D,D]3 [D,D] | [D,D][D,D][D,D][D,D] z (C,B,,)[A,,D,C] | %5
 [G,,G,B,]2 [G,,G,B,]2 [G,,G,B,]3 [G,,C] | [G,D][G,A,][G,B,][G,C] [G,B,] [G,D]2 [G,B,] | %7
 [C,A,]2 [C,^G,]2 [A,,A,][A,,A,][B,,G,][C,A,] | [D,B,]2 [D,C]2 [G,,G,B,]3 [G,D] | %9
 [G,B,]3 [G,C] [G,B,]3 [G,D] | D8- | D4- [D,D]3 [D,E] | [G,E][G,D][G,D][G,^C] [G,D]3 [G,D] | %13
 [G,B,]3 [G,D] [G,B,]3 [G,D] | [G,B,][G,B,][F,C][=F,D] ([E,C][D,B,])!fermata![C,C][C,C] | %15
 [G,B,]2 [G,^A,]2 [G,B,]3 [E,B,] | [D,D][D,D][D,C][D,C] [G,,B,]3 |] %17
V:4
 x | x8 | x8 | x8 | x4 [D,D]3 x | x8 | x8 | x8 | x8 | x8 | D,D,D,D, D, D,2 D, | D,3 D, x4 | x8 | %13
 x8 | x8 | x8 | x7 |] %17

